
shader
textures_test
(
	 point Pobj = 0 
         [[
         int lockgeom = 0
         ]], output float resultF = 0,
output color resultRGB = color(0,0,0)
)
{
    
	point pp = Pobj;

color materials[6];
materials[0] = color(0,0,0);
materials[1] = color(1,1,0);
materials[2] = color(0,1,0);
materials[3] = color(0,1,1);
materials[4] = color(0,0,1);
materials[5] = color(0,1,0);
float val = 0;
normal Nn = normal(0,0,0);
color rez;
rez = texture3d("blaf",pp,"blur",0.5);
val = rez[0];

resultF = val;
int index = (int) val;
	if(resultF>=0 && resultF<6)
		resultRGB = materials[index];
	else
		resultRGB = color(1,1,1);	

//float n = noise(pp);
//resultRGB = color(n);
}
