
shader
textures_test
(
	 point Pobj = 0 
         [[
         int lockgeom = 0
         ]], output float resultF = 0,
output color resultRGB = color(0,0,0)
)
{    
	point pp = Pobj;
      
       color hardness_colors[8];
	
hardness_colors[0] = color(0,0,0);
hardness_colors[1] = color(1,0,1);
hardness_colors[2] = color(1,0,0);
hardness_colors[3] = color(0,1,1);
hardness_colors[4] = color(1,1,0);
hardness_colors[5] = color(0,0,1);
hardness_colors[6] = color(0,1,0);
hardness_colors[7] = color(1,1,1);
	

 
	color res  = texture3d("brickmap",pp);
	float val = res[0];
	resultF = val;
	if(val<0 || val>8)
	{
		resultRGB = color(0,0,0);
	}else{
		int index = (int) round(val);
		resultRGB = hardness_colors[index];
	}

}
